platform/safari/img/browsericons/safari-icon16.svg

<svg xmlns="http://www.w3.org/2000/svg" width="16" height="16">
  <path d="M8 16H5c-.3 0-.6-.1-.8-.3-1.3-1.3-2.5-2.6-3.8-3.9-.3-.2-.4-.4-.4-.8V4.9c0-.3.1-.5.3-.7L4.2.3c.2-.2.4-.3.7-.3H11c.3 0 .5.1.8.3l3.9 3.9c.2.2.3.4.3.7v6.2c0 .3-.1.5-.3.7l-3.9 3.9c-.3.2-.5.3-.8.3H8zm2.8-8V5c0-.6-.2-.7-.7-.7s-.8.1-.8.7c.1 1.6 0 3.3 0 4.9 0 .4-.1.6-.5.6-1.5.1-2.1-.3-2.1-1.9V5.3c0-1.1 0-1.1-1.1-1-.2 0-.4.1-.4.3 0 1.7-.2 3.4.1 5 .2 1.5 1.2 2.2 2.7 2.3.7 0 1.4-.1 2.1-.2.5-.1.5-.3.5-.7.1-1 .2-2 .2-3z"/>
</svg>

<?xml version="1.0" encoding="utf-8"?>
<!-- Generator: Adobe Illustrator 18.1.1, SVG Export Plug-In . SVG Version: 6.00 Build 0)  -->
<svg version="1.1" id="Layer_1" xmlns="http://www.w3.org/2000/svg" xmlns:xlink="http://www.w3.org/1999/xlink" x="0px" y="0px"
	 width="16px" height="16px" viewBox="0 0 16 16" enable-background="new 0 0 16 16" xml:space="preserve">
<path d="M8,16c-1,0-2,0-3,0c-0.3,0-0.6-0.1-0.8-0.3c-1.3-1.3-2.5-2.6-3.8-3.9C0.1,11.6,0,11.4,0,11C0,9,0,7,0,4.9
	c0-0.3,0.1-0.5,0.3-0.7c1.3-1.3,2.6-2.6,3.9-3.9C4.4,0.1,4.6,0,4.9,0C7,0,9,0,11,0c0.3,0,0.5,0.1,0.8,0.3c1.3,1.3,2.6,2.6,3.9,3.9
	C15.9,4.4,16,4.6,16,4.9c0,2.1,0,4.1,0,6.2c0,0.3-0.1,0.5-0.3,0.7c-1.3,1.3-2.6,2.6-3.9,3.9C11.5,15.9,11.3,16,11,16
	C10,16,9,16,8,16z M10.8,8c0-1,0-2,0-3c0-0.6-0.2-0.7-0.7-0.7S9.3,4.4,9.3,5c0.1,1.6,0,3.3,0,4.9c0,0.4-0.1,0.6-0.5,0.6
	c-1.5,0.1-2.1-0.3-2.1-1.9c0-1.1,0-2.2,0-3.3c0-1.1,0-1.1-1.1-1c-0.2,0-0.4,0.1-0.4,0.3c0,1.7-0.2,3.4,0.1,5
	c0.2,1.5,1.2,2.2,2.7,2.3c0.7,0,1.4-0.1,2.1-0.2c0.5-0.1,0.5-0.3,0.5-0.7C10.7,10,10.8,9,10.8,8z"/>
</svg>
